!!!COM: Britten, (Edward) Benjamin
!!!OTL: Spring Symphony for Soprano, Alto and Tenor Solo, Mixed Chorus, Boys' Choir and Orchestra, op. 44
!!!OMV: Part III: Fair and Fair
!!!example: 806
!!!work: Bri-33
**kern	**dynam	**kern	**dynam	**kern	**dynam	**kern	**dynam
*part5	*part5	*part4	*part4	*part3	*part3	*part2	*part2
*staff5	*	*staff4	*	*staff3	*	*staff2	*
*I"Violin II	*	*I"Violin I	*	*I"Soprano	*	*I"Oboe	*
*I'Vln. II	*	*I'Vln. I	*	*I'S.	*	*I'Ob.	*
*clefG2	*	*clefG2	*	*clefG2	*	*clefG2	*
*k[f#c#g#]	*	*k[f#c#g#]	*	*k[f#c#g#]	*	*k[f#c#g#]	*
*A:	*	*A:	*	*A:	*	*A:	*
*M6/8	*	*M6/8	*	*M6/8	*	*M6/8	*
*MM121	*	*MM121	*	*MM121	*	*MM121	*
=3	=3	=3	=3	=3	=3	=3	=3
2.e 2.b	pp	2.a 2.ee	pp	8r	.	8aL	pp
.	.	.	.	8.cc#L	.	(8fn	.
.	.	.	.	.	.	8ccnJ	.
.	.	.	.	16aaJk	.	.	.
.	.	.	.	4ee	.	8b-XL	.
.	.	.	.	.	.	8ff#X	.
.	.	.	.	8b	.	8eeJ	.
=4	=4	=4	=4	=4	=4	=4	=4
2.e 2.b	.	2.a 2.ee	.	8.cc#L	.	8aL)	.
.	.	.	.	.	.	(8fn	.
.	.	.	.	16aaJk	.	.	.
.	.	.	.	4ee	.	8ccnJ	.
.	.	.	.	.	.	8b-XL	.
.	.	.	.	8bL	.	8ff#X	.
.	.	.	.	[8cc#J	.	8eeJ	.
=5	=5	=5	=5	=5	=5	=5	=5
2.e 2.b	<[	2.a 2.ee	<[	16cc#LL]	.	8aL)	.
.	.	.	.	16aaJ	.	.	.
.	.	.	.	8.ee	.	(8fn	.
.	.	.	.	.	.	8ccnJ	.
.	.	.	.	16aaJk	.	.	.
.	.	.	.	8.cc#L	.	8b-XL	.
.	.	.	.	.	.	8ff#X	<
.	.	.	.	16ff#L	<	.	.
.	.	.	.	16ee	.	8eeJ	.
.	.	.	.	16ddJJ	.	.	.
=6	=6	=6	=6	=6	=6	=6	=6
!!linebreak:original
2.e 2.b	>]	2.a 2.ee	>]	4cc#	[	8bbnL	.
.	.	.	.	.	.	8ddd	[ >
.	.	.	.	4f#	.	8ccc#XJ	.
.	.	.	.	.	.	8gg#L	.
.	.	.	.	16r	.	8dd#XJ)	.
.	.	.	.	16cc#LL	.	.	.
.	.	.	.	16cc#	.	8r	]
.	.	.	.	16ddJJ	.	.	.
=7	=7	=7	=7	=7	=7	=7	=7
2.b^	.	2.f#^ 2.dd#X	.	8.cc#^L	.	2.r	.
.	.	.	.	16a#Xk	.	.	.
.	.	.	.	[8bJ	.	.	.
.	.	.	.	16bLL]	.	.	.
.	.	.	.	16ff#J	.	.	.
.	.	.	.	8bJ	.	.	.
.	.	.	.	16r	.	.	.
.	.	.	.	16cc#	.	.	.
=8	=8	=8	=8	=8	=8	=8	=8
2.b^	.	2.f#^ 2.dd#X	.	16cc#LL	.	2.r	.
.	.	.	.	16ddJ	.	.	.
.	.	.	.	8.cc#^	.	.	.
.	.	.	.	16a#XJk	.	.	.
.	.	.	.	8.bL	.	.	.
.	.	.	.	16ff#k	.	.	.
.	.	.	.	8bJ	.	.	.
=9	=9	=9	=9	=9	=9	=9	=9
!LO:TX:t=poco cresc.	!	!LO:TX:t=poco cresc.	!	!	!	!	!
4.b^	.	4.f#^ 4.dd#X	.	16r	.	2.r	.
!	!	!	!	!LO:TX:t=cresc.	!	!	!
.	.	.	.	16cc#LL	.	.	.
.	.	.	.	16cc#	.	.	.
.	.	.	.	16ddJ	.	.	.
.	.	.	.	8.cc#^	.	.	.
4.d 4.b	.	4.gn	.	.	.	.	.
.	.	.	.	16bk	.	.	.
.	.	.	.	8.a	.	.	.
.	.	.	.	16bJk	.	.	.
=	=	=	=	=	=	=	=
*-	*-	*-	*-	*-	*-	*-	*-
!!!system-decoration: [(s1,s2)]s3[(s4,s5)]
!!!CDT: 1913/11/22-1976/12/04
!!!CBL: Lowestoft, England
!!!CDL: Aldeburgh, England
!!!CNT: English
!!!AGN: Vocal; Choral
!!!MCN: Beinum, Eduard van
!!!MDT: 1949/07/14
!!!MGN: Dutch Radio Chorus; Concertgebouw Orchestra
!!!MLC: Amsterdam, The Netherlands
!!!MPD: 1949
!!!MPN: Ferrier, Kathleen; Pears, Peter; Vincent, Joe
!!!ODT: 1949
!!!PDT: 1951
!!!excerpt-start-measure: 3
!!!excerpt-end-measure: 9
!!!excerpt-start-time: 0:04
!!!excerpt-end-time: 0:19
!!!EEV: 2020/01/22
!!!ONB: Converted from MusicXML on 2020/01/22
